!!!COM: Bach, Johann Sebastian
!!!OTL@@DE: 305. Wie s&ouml;chn leuchtet der Morgenstern
!!!OTL@EN: How brightly shines the morning star
!!!SCA: BWV 36.4
**harm	**root	**kern	**kern	**kern	**kern
*staff2	*	*staff2	*staff2	*staff1	*staff1
*Iorgan	*Iorgan	*Iorgan	*Iorgan	*Iorgan	*Iorgan
*>[A,A,B]	*>[A,A,B]	*>[A,A,B]	*>[A,A,B]	*>[A,A,B]	*>[A,A,B]
*>norep[A,B]	*>norep[A,B]	*>norep[A,B]	*>norep[A,B]	*>norep[A,B]	*>norep[A,B]
*>A	*>A	*>A	*>A	*>A	*>A
!	!	!bass	!tenor	!alto	!sprno
*	*	*clefF4	*clefF4	*clefG2	*clefG2
*k[f#c#]	*k[f#c#]	*k[f#c#]	*k[f#c#]	*k[f#c#]	*k[f#c#]
*D:	*D:	*D:	*D:	*D:	*D:
*met(C)	*met(C)	*met(C)	*met(C)	*met(C)	*met(C)
*M4/4	*M4/4	*M4/4	*M4/4	*M4/4	*M4/4
*MM60	*MM60	*MM60	*MM60	*MM60	*MM60
I	4DD	4D\	4F#/	4A\	4d/
=1	=1	=1	=1	=1	=1
Vb	4AA	4C#\	4E/	4A\	4a/
I	8DD	8D\L	8D/L	4A\	8f#/L
Vb	8AA	8C#\J	8E/J	.	8e/J
vi	4BB	4BB\	8F#/L	4B\	4d/
.	.	.	8G#/J	.	.
iii	4FF#	8F#\L	4A/	4c#\	4a/
.	.	8E\J	.	.	.
=2	=2	=2	=2	=2	=2
vi7	4BB	8D\L	4A/	4f#\	8.b/L
.	.	8BB\J	.	.	.
.	.	.	.	.	32cc#/LL
.	.	.	.	.	32dd/JJJ
V/V	4EE	4E\	4G#/	4e\	8cc#/L
.	.	.	.	.	8b/J
V;	4AA;	4AA;\	4c#;/	4e;\	4a;/
I	4DD	4D\	4d/	4f#\	4a/
=3	=3	=3	=3	=3	=3
IV	4GG	4G\	4d/	4g\	4b/
viiob	4CC#	8F#\L	4e/	4g\	4cc#/
.	.	8E\J	.	.	.
Ib	4DD	8F#\L	8A/L	4f#\	4dd/
.	.	8G#\J	8B/J	.	.
V	4AA	4A\	4c#/	8e\L	4cc#/
.	.	.	.	8a\J	.
=4	=4	=4	=4	=4	=4
vi7b	8BB	4D\	8F#/L	4a\	8b/L
I	8DD	.	8f#/J	.	8dd/J
V7/V	4EE	4E\	8e/L	4g#\	8cc#/L
.	.	.	8d/J	.	8b/J
V;	4AA;	4AA;\	4c#;/	4e;\	4a;/
I	4DD	4D\	4A/	4d\	4f#/
=5	=5	=5	=5	=5	=5
IV	4GG	4G\	4G/	4d\	4b/
Ib	4DD	4F#\	4A/	4d\	4a/
viio7b	4CC#	4E\	8B/L	8d\L	4g/
.	.	.	8G/J	8c#\J	.
I	4DD	4D\	4A/	4d\	4f#/
=6	=6	=6	=6	=6	=6
V7	2AA	2AA\	4.A/	4d\	2e/
.	.	.	.	4c#\	.
.	.	.	8G/	.	.
I;	4DD;	4D;\	4F#;/	4A;\	4d;/
=7:|!	=7:|!	=7:|!	=7:|!	=7:|!	=7:|!
!!linebreak: 2
*>B	*>B	*>B	*>B	*>B	*>B
Vb	2AA	2C#\	2A/	2e\	2a/
I;	2DD;	2D;\	2A;/	2d;\	2f#;/
=8	=8	=8	=8	=8	=8
V	2AA	2AA\	2c#/	2e\	2a/
I;	2DD;	2D;\	2A;/	2d;\	2f#;/
=9	=9	=9	=9	=9	=9
I	4DD	8D\L	4A/	4d\	4f#/
.	.	8E\	.	.	.
Ib	4DD	8F#\	4A/	4d\	4f#/
.	.	8G\J	.	.	.
V	4AA	8A\L	4A/	4c#\	4e/
.	.	8B\	.	.	.
V	4AA	8A\	4A/	4c#\	4e/
.	.	8G\J	.	.	.
=10	=10	=10	=10	=10	=10
Ib	4DD	8F#\L	4A/	4d\	4f#/
.	.	8E\	.	.	.
I	4DD	8F#\	4A/	4d\	4f#/
.	.	8D\J	.	.	.
V	4AA	8AA\L	4A/	4c#\	4e/
.	.	8A\	.	.	.
viiob/II	4DD#	8G\	4A/	4d#\	4f#/
.	.	8F#\J	.	.	.
=11	=11	=11	=11	=11	=11
ii	4EE	4E\	8B/L	4e\	4g/
.	.	.	8c#/J	.	.
vi	4BB	8B\L	4dn/	8dn\L	4f#/
.	.	8A\J	.	8c#\J	.
ii7b	4EE	4G\	8d/L	4B\	2e/
.	.	.	16c#/L	.	.
.	.	.	16B/JJ	.	.
V7	4AA	4A\	8A/L	4c#\	.
.	.	.	8G/J	.	.
=12	=12	=12	=12	=12	=12
I;	2DD;	2D;\	2F#;/	2A;\	2d;/
vi	4BB	4BB\	8F#/L	4f#\	4dd/
.	.	.	8G#/J	.	.
V/VI	4FF#	4FF#\	4A#/	8f#\L	4cc#/
.	.	.	.	8e\J	.
=13	=13	=13	=13	=13	=13
IV	4GG	4GG\	4B/	8d\L	4b/
.	.	.	.	8e\J	.
iiib	4FF#	4AA\	4c#/	[4f#\	4a/
IV7	8GG	8BB\L	8d/L	8f#\]	4g/
viio	8CC#	8C#\J	8e/J	4e\	.
I	4DD	4D\	4A/	.	4f#/
.	.	.	.	[8d\	.
=14	=14	=14	=14	=14	=14
ii	4EE	4GG\	4B/	8d\L]	2e/
.	.	.	.	16c#\L	.
.	.	.	.	16B\JJ	.
V7	4AA	4AA\	8A/L	4c#\	.
.	.	.	8G/J	.	.
I;	4DD;	4DD;\	4F#;/	4A;\	4d;/
==	==	==	==	==	==
*-	*-	*-	*-	*-	*-
!!!ENC: Craig Stuart Sapp
!!!END: 2004/12/06/
!!chor2scor: -l 2 -s 0.6 -o %b.pmx!!chor2scor: -l 2 -s 0.6 -o %b.pmx
